X:8
T:Anna's Smile
M:C|
C:© Paul Gitlitz 2006
B:Anna's Smile
N:Peter and Jenny Kratoska baby Anna.
K:A
"A"gaed cAAc|"E"BAGB "A"Aceg|a2ed cAAc|"E"BAGB "A"A3e|!
"A"gaed cAAc|"E"BAGB "A"ABce|aeed cAAc|"E"BAGB "A"A2AB|!
|:"A"cAdA cABA|"E7"GABG EGBG|"A"cAdA cABA|"E7"GABG "A"A2AB:|!
|:"A"c2ec "F#m"fcec|"D"d2fd "Bm"gdfd|"A"c2ec "F#m"fcec|"E"BAGB "A"A2ed|!
"A"~c2 ec "F#m"fcec|"D"~d2 fd "Bm"gdfd|"A"aeed "A/E"cBAc|"E"BAGB "A"A4:|]
